components/ui-node-icon/src/outerJoin/outerJoin.small.svg

<svg width="16" height="16" viewBox="0 0 16 16" fill="none" xmlns="http://www.w3.org/2000/svg">
  <path opacity="0.08" fill-rule="evenodd" clip-rule="evenodd" d="M8.08721 12.1206C7.41511 12.4744 6.64958 12.6746 5.8373 12.6746C3.16573 12.6746 1 10.5089 1 7.8373C1 5.16573 3.16573 3 5.8373 3C6.64958 3 7.41511 3.20021 8.08721 3.55398C8.75931 3.20021 9.52484 3 10.3371 3C13.0087 3 15.1744 5.16573 15.1744 7.8373C15.1744 10.5089 13.0087 12.6746 10.3371 12.6746C9.52484 12.6746 8.75931 12.4744 8.08721 12.1206Z" fill="currentColor"/>
  <path fill-rule="evenodd" clip-rule="evenodd" d="M7.12417 11.4535C6.7219 11.5967 6.2887 11.6746 5.8373 11.6746C3.71802 11.6746 2 9.95658 2 7.8373C2 5.71802 3.71802 4 5.8373 4C6.2887 4 6.7219 4.07794 7.12416 4.2211C6.12762 5.10716 5.49982 6.39892 5.49982 7.8373C5.49982 9.27569 6.12763 10.5674 7.12417 11.4535ZM8.08721 12.1206C7.41511 12.4744 6.64958 12.6746 5.8373 12.6746C3.16573 12.6746 1 10.5089 1 7.8373C1 5.16573 3.16573 3 5.8373 3C6.64958 3 7.41511 3.20021 8.08721 3.55398C8.75931 3.20021 9.52484 3 10.3371 3C13.0087 3 15.1744 5.16573 15.1744 7.8373C15.1744 10.5089 13.0087 12.6746 10.3371 12.6746C9.52484 12.6746 8.75931 12.4744 8.08721 12.1206ZM9.05026 4.2211C9.45253 4.07794 9.88572 4 10.3371 4C12.4564 4 14.1744 5.71802 14.1744 7.8373C14.1744 9.95658 12.4564 11.6746 10.3371 11.6746C9.88572 11.6746 9.45253 11.5967 9.05026 11.4535C10.0468 10.5674 10.6746 9.27569 10.6746 7.8373C10.6746 6.39892 10.0468 5.10716 9.05026 4.2211ZM8.08721 4.72846C9.04903 5.42575 9.6746 6.55847 9.6746 7.8373C9.6746 9.11613 9.04903 10.2489 8.08721 10.9461C7.12539 10.2489 6.49982 9.11613 6.49982 7.8373C6.49982 6.55847 7.12539 5.42575 8.08721 4.72846Z" fill="currentColor"/>
</svg>

<svg xmlns="http://www.w3.org/2000/svg" width="16" height="16" fill="none" viewBox="0 0 16 16">
  <path fill="currentColor" fill-rule="evenodd" d="M8.087 12.12a4.837 4.837 0 1 1 0-8.567 4.837 4.837 0 1 1 0 8.567Z" clip-rule="evenodd" opacity=".08"/>
  <path fill="currentColor" fill-rule="evenodd" d="M7.124 11.454a3.837 3.837 0 1 1 0-7.232A4.825 4.825 0 0 0 5.5 7.836c0 1.439.628 2.73 1.624 3.617Zm.963.667a4.837 4.837 0 1 1 0-8.567 4.837 4.837 0 1 1 0 8.567Zm.963-7.9a3.837 3.837 0 1 1 0 7.232 4.825 4.825 0 0 0 1.625-3.616c0-1.438-.628-2.73-1.625-3.616Zm-.963.507a3.832 3.832 0 0 1 1.588 3.11 3.832 3.832 0 0 1-1.588 3.108A3.832 3.832 0 0 1 6.5 7.837c0-1.279.625-2.411 1.587-3.109Z" clip-rule="evenodd"/>
</svg>
